X:1
T:Title
T:Violin Concerto in G Major RV299 Op 7 No 2
T:Antonio Vivaldi 
T:Allegro assai
C:Composer
%%score { ( 1 3 ) | 2 }
L:1/8
M:2/4
K:G
V:1 treble nm="Piano" snm="Pno."
V:3 treble 
V:2 bass 
V:1
!mf! [GBdg]2 [FAdf]2 | [GBdg]2 z [Ad] | [GBeg]2 z [Ada] | [Bdb]g [Ada]f | [Gdg]d e[EB] | %5
 [Ec]A d[DAc] | [DB]G A[A,F] | [B,G]D[K:bass] EB, | [E,C]A, D[D,A,C] | [D,G,B,]2 G,2 | %10
"^1\n" [Gg]d [Gg]d | [EGe]c ce | [GAa]e [GAa]e | [Af]d df | [Bb]f [Bb]f | [Bdg]e eg | %16
 [GAa]c [GAa]c | [FAf]d !5!g!4![Gdf]/!3!e/ | !5![EGAd]!5!c/!4!B/ !3![DFA]!5!G/!4!F/ | %19
 !5![B,DG]F/E/ D/C/B,/A,/ | [G,B,]2 z2 |!p!"^2" [B,DG]2 [DFA]2 | [DGB]2 z [GB] | [Fd]2 [DFc]2 | %24
 [DGB]2 z!mf! [GB] | [Ec]2 [DAd]2 | [DGB]2 z [GB] | [Ec]2 [DAd]2 | [DGB]2 z [B,G] | [DF]2 [DG]2 | %30
 [^CE]2 z2 | ^c-d ec | d3- ^c |!<(! d2 z2!<)! |"^3"!mf! [Gg]2 [Gg]d | [EGe]c ce | [GAa]e [GAa]e | %37
 [FAf]d df | [Bb]f [Bb]f | [GBg]e eg | [Aa]e [Aa]e | [Fdf]d !5!g!4![Gdf]/!3!e/ | %42
 !5![EGAd]!5!c/!4!B/ !3![DFA]!5!G/!4!F/ | [B,DG]F/E/ D/C/B,/A,/ | G,2 z2 |"^4"!p! [B,DG]2 [DFA]2 | %46
 [DGB]2 z [DGB] |"_cresc." [DAd]2 z [DFc] | [DGB]2 z [DGB] | [CFA]2 z [DAc] | [DGB]2 z [DGB] | %51
 [CEc]2 z [CDA] | [B,DB]2 z [B,DG] |!mf! [A,DA]2 [A,EGA]2 | [A,^CEA]2 z2 |!p! [A,^CEA]2 z2 | %56
!f! [A,^CEA]2 z2 | (FA E2) |"^5" [A,DF]2 [A,DA]2 | [DG]2 z [DG] | [EG]2 z2 | [EA]2 z [EA] | %62
 [FA]2 z [DA] | [DG_B]2 [DGB]2 | [DAd]2 [DAd]2 |!p! [DG_B]2 [DGB]2 | [DAd]2 [DAd]2 | %67
!f! [DGB][EAc] [FA]2 | [B,DG]2 z2 |"^6"!mf! [EGBe]2 [^DFB^d]2 | [EGBe]2 z [B,FB] | [EGe]2 z [Fcf] | %72
 [GBg]/f/e/g/ f/e/[A^d]/f/ | [Ge]B e[FBdf] | [GBg]/f/d/g/ f/e/[B^d]/f/ | %75
"^7"!p! [Ge][egb] [egb][egb] | [eac'][eac'] [eac'][eac'] | [fc'][fc'] [fc'][fc'] | %78
 [dgb][dgb] [dgb][dgb] | [ceb][ceb] [ceb][ceb] | [cfa][cfa] [cfa][cfa] | [B^da][Bda] [Bda][Bda] | %82
 [Beg][Beg] [Beg][Beg] |"_cresc." [Bfa][Bfa] [Bfa][Bfa] | [Bgb][Bgb] [Bgb][Bgb] | %85
 [Bfa][Bfa] [Bfa][Bfa] | [Beg][Beg] [Beg][Beg] | [Bef][Bef] [Bef][Bef] | [B^df][Bdf] [Bdf][Bdf] | %89
"^8"!mf! [GBeg]2 [FB^df]2 | [GBeg]2 z2 | z4 | z4 |!mf! [=FAd=f]2 [EA^ce]2 | [=FAd=f]2 z2 | z4 | %96
 z4 |"^9"!f! [EGce]2 [DGBd]2 |!p! [EGce]2 z2 | [CGc]2 z2 | [CDA]2 z2 |"_cresc." [CDA]2 z2 | %102
 [B,DB]2 z2 | [EGc]2 z2 | [da]2 [Bdb]2 | [da]2 [Bdb]2 | [da]c [Bdg]2 | [Adg]2 [Adf]2 | %108
!mf!"^10" [GBdg]2 [Adfa]2 | [Bdb]g [Ada]f | [Gdg]d e[EB] | [Ec]A d[DAc] | [DGB]G [DA][A,DF] | %113
 [B,DG]D[K:bass] E[E,B,] | [E,C]A, D[D,A,C] | [D,G,B,]2 G,2 |!p!"^11" [DGd]2 [DG]2 | [EG]4 | %118
 [EAe]2 [EA]2 | [FA]4 | [FBf]2 [FB]2 | [GB]4 | [EAe]2 [Aea]2 | [Adf]2!mf! g[Gdf]/e/ | %124
"^12" [EGAd]c/B/ [DFA]G/F/ | [B,DG]G, g[Gdf]/e/ | [EGAd]c/B/ [DFA]G/F/ | [B,DG]F/E/ D/C/B,/A,/ | %128
 G,/G/F/E/ D/C/B,/A,/ | G,/G/F/E/ D/C/B,/A,/ | G,/G/F/E/ D/C/B,/A,/ | G,4 |] %132
V:2
 [G,,G,]2 [D,D]2 | [G,,G,]2 z [F,,F,] | [E,,E,]2 z [F,,F,] | [G,,G,]2 [F,,F,]2 | %4
 [B,,B,]2 z [G,,G,] | [A,,A,]2 z [F,,F,] | [G,,G,]2 z [D,,D,] | [G,,G,]2 z [G,,,G,,] | %8
 [A,,,A,,]2 z [F,,,F,,] | [G,,,G,,]4 | [B,,B,]2 [B,,,B,,]2 | [C,,C,]2 z2 | [^C,^C]2 [^C,,C,]2 | %13
 [D,,D,]2 z2 | [D,D]2 [D,,D,]2 | [G,,G,]2 z2 | [=C,=C]2 [=C,,C,]2 | [D,,D,]2 z [B,,,B,,] | %18
 [C,,C,]2 [D,,D,]2 | [G,,,G,,]2 z2 | [G,,,G,,]2 z2 | G,2 D,2 | G,,2 z [G,D] | D2 D,2 | G,2 z G, | %25
 A,2 F,2 | G,2 z G, | A,2 F,2 | G,2 z G, | D,2 B,,2 | A,,2 z2 | A,,-B,, ^C,A,, | D,-F, A,A,, | %33
 D,[D,D] [D,D][C,C] | [B,,B,]2 [B,,,B,,]2 | [C,,C,]2 z2 | [^C,^C]2 [^C,,C,]2 | [D,,D,]2 z2 | %38
 [D,D]2 [D,,D,]2 | [E,,E,]2 z2 | [C,C]2 [C,,C,]2 | [D,,D,]2 z [B,,,B,,] | [C,,C,]2 [D,,D,]2 | %43
 [G,,,G,,]2 z2 | [G,,,G,,]2 z2 | G,2 D,2 | G,2 z G, | F,2 z D, | G,2 z G, | A,2 z F, | G,2 z G, | %51
 A,2 z G, | G,2 z G, | (F,E,/D,/ ^C,D,) | [A,,E,]2 z2 | [A,,E,]2 z2 | [A,,E,]2 z2 | %57
 (D,/E,/F,/G,/ A,)A,, | D,E, F,D, | B,,2 z B, | C2 z2 | C2 z C | D2 z F, | G,2 G,2 | F,2 F,2 | %65
 G,2 G,2 | F,2 F,2 | G,C DD, | G,2 z2 | [E,,E,]2 [B,,,B,,]2 | [E,,E,]2 z [=D,,=D,] | %71
 [C,,C,]2 [B,,,B,,][A,,,A,,] | [G,,,G,,]2 z [B,,,B,,] | [E,,E,]2 z [B,,,B,,] | %74
 [G,,,G,,]2 z [B,,,B,,] | [E,,E,][K:treble][EGB] [EGB][EGB] | [Ac][Ac] [Ac][Ac] | dd dd | %78
 [GB][GB] [GB][GB] | [CG][CG] [CG][CG] | [FA][FA] [FA][FA] | [B,F][B,F] [B,F][B,F] | %82
 [B,EG][B,EG] [B,EG][B,EG] | [B,FA][B,FA] [B,FA][B,FA] | [B,G][B,G] [B,G][B,G] | %85
 [B,FA][B,FA] [B,FA][B,FA] | [B,EG][B,EG] [B,EG][B,EG] | [B,EF][B,EF] [B,EF][B,EF] | %88
 [B,^DF][B,DF] [B,DF][B,DF] | [E,,E,]2 [B,,,B,,]2 | [E,,E,]2 z2 | z4 | z4 | [D,,D,]2 [A,,,A,,]2 | %94
 [D,,D,]2 z2 | z4 | z4 | [C,,C,]2 [G,,,G,,]2 | [C,,C,]2 z2 | [E,,E,]2 z2 | [=F,,=F,]2 z2 | %101
 [=F,,=F,]2 z2 | [G,,G,]2 z2 | [C,C]2[K:treble] [CEGA]2 | [DFA]2 [G,DG]2 | [DF]2 [G,DG]2 | %106
 [DF]2[K:bass] [D,D]2 | D2 D2 | [G,,,G,,]2 [D,,D,]2 | [G,,G,]2 [F,,F,]2 | [B,,B,]2 z [G,,G,] | %111
 [A,,A,]2 z [F,,F,] | [G,,G,]2 z [D,,D,] | [G,,G,]2 z [G,,,G,,] | [A,,,A,,]2 z [F,,,F,,] | %115
 [G,,,G,,]4 | B,2 B,,2 | C2 C,2 | ^C2 ^C,2 | D2 D,2 | ^D2 ^D,2 | E2 E,2 | ^C2 ^C,2 | %123
 D,2 z [B,,,B,,] | [C,,C,]2 [D,,D,]2 | [G,,,G,,]2 z [B,,,B,,] | [C,,C,]2 [D,,D,]2 | [G,,,G,,]2 z2 | %128
 G,,/G,/F,/E,/ D,/C,/B,,/A,,/ | G,,/G,/F,/E,/ D,/C,/B,,/A,,/ | %130
 G,,/G,,/F,,/E,,/ D,,/C,,/B,,,/A,,,/ | [G,,,G,,]4 |] %132
V:3
 x4 | x4 | x4 | x4 | x4 | x4 | x4 | x2[K:bass] x2 | x4 | x4 | x4 | x4 | x4 | x4 | x4 | x4 | x4 | %17
 x4 | x4 | x4 | x4 | x4 | x4 | x4 | x4 | x4 | x4 | x4 | x4 | x4 | x4 | E2 E2 | F2- E2 | F2 x2 | %34
 x4 | x4 | x4 | x4 | x4 | x4 | x4 | x4 | x4 | x4 | x4 | x4 | x4 | x4 | x4 | x4 | x4 | x4 | x4 | %53
 x4 | x4 | x4 | x4 | (D3 ^C) | x4 | x4 | x4 | x4 | x4 | x4 | x4 | x4 | x4 | x4 | x4 | x4 | x4 | %71
 x4 | x4 | x4 | x4 | x4 | x4 | x4 | x4 | x4 | x4 | x4 | x4 | x4 | x4 | x4 | x4 | x4 | x4 | x4 | %90
 x4 | x4 | x4 | x4 | x4 | x4 | x4 | x4 | x4 | x4 | x4 | x4 | x4 | x4 | x4 | x4 | x4 | x4 | x4 | %109
 x4 | x4 | x4 | x4 | x2[K:bass] x2 | x4 | x4 | x4 | x4 | x4 | x4 | x4 | x4 | x4 | x4 | x4 | x4 | %126
 x4 | x4 | x4 | x4 | x4 | x4 |] %132

